icons/badge/add/square.svg

<svg width="32" height="32" viewBox="0 0 32 32" fill="none" xmlns="http://www.w3.org/2000/svg">
<path fill-rule="evenodd" clip-rule="evenodd" d="M2.66663 4.66669C2.66663 3.56212 3.56206 2.66669 4.66663 2.66669H27.3333C28.4379 2.66669 29.3333 3.56212 29.3333 4.66669V27.3334C29.3333 28.4379 28.4379 29.3334 27.3333 29.3334H4.66663C3.56206 29.3334 2.66663 28.4379 2.66663 27.3334V4.66669ZM27.3333 4.66669L4.66663 4.66669V27.3334H27.3333V4.66669ZM15 15V9H17V15H23V17H17V23H15V17H9V15H15Z" fill="black"/>
</svg>

<svg width="32" height="32" viewBox="0 0 32 32" xmlns="http://www.w3.org/2000/svg">
    <path fill-rule="evenodd" d="M2.667 4.667a2 2 0 012-2h22.666a2 2 0 012 2v22.666a2 2 0 01-2 2H4.667a2 2 0 01-2-2V4.667zm24.666 0H4.667v22.666h22.666V4.667zM15 15V9h2v6h6v2h-6v6h-2v-6H9v-2h6z"/>
</svg>
